X: 469
U:~=!turn!
M:C|
L:1/8
K:Bb
e | d<Bf<B g<Bf<B | e>cd<B c>Bc<e | d<Bf<B e/f/g/a/ bd | Tc>Bc<d B/B/B Be |
d<Bf<B g<Bf<B | e<cd<B c>Bc<d | {Bc}d>cB<F BdBF | G<BF>D B,/B,/B, B, |]


